X: 38515
T: Stella Splendens
R: polka
M: 2/4
K: Edorian
BB/A/ BG EG|A2 c/B/G/A/ FE|GA A/G/E D2|BB/A/
BG EG|A2 c/B/G/A/ FE|1 GA A/G/E/D/ E2:|2 GA B/G/E/D/ EG/F/||
EE Bc ec|BA cd BA/G/|FE Bc ef/e/|dc/B/ AG/F/ E2|
EB/E/ Bc ec|BA cd Bc/d/|ef/e/ dc/d/ B2|A/G/F/G/ AG/F/ EF//G//A/||

